X: 1515
T: The Ham Family Varsovianna
B: australian traditional tunes wiki
M:3/4
L:1/8
R: Varsovienne
Q: 1/4=100
K:G
V:1 
B>c||"G"d2g2(f/g/f)|"C"e4A>B|"D7"c2f2(e/f/e)|"G"d4G>A|"Em"B2e2(d/e/d)|"Am"c4G>A|"D7"B>B B2A2|"G"G4B>c|
"G"d2g2(f/g/f)|"C"e4A>B|"D7"c2f2(e/f/e)|"G"d4G>A|"Em"B2e2(d/e/d)|"Am"c4G>A|"D7"B>B B2A2|"G"G4B>A||
|:"G"B>GD2B>A|"G"B>GD2B>A|"G"B2c2(B/c/B)|"D7"A4A>F|"D7"A>FD2A>F|"D7"A>FD2A>F|"D7"A2B2(A/B/A)|1"G"G4B>A:|2"G"G4||
% abcbook-tune_id 6342d53ac05b1ec05126a96b


% abcbook-boost 0
% abcbook-tablature 
% abcbook-transpose 
% abcbook-lastupdated 1665324368770
% abcbook-soundfonts 
% abcbook-repeats 1
% NFF Book 2013

